images/like-icon.svg

<svg width="16" height="16" viewBox="0 0 16 16" fill="none" xmlns="http://www.w3.org/2000/svg">
<g id="icons">
<path id="Icon" d="M2.66675 7.61979L2.66675 12.2865M5.00008 7.34473V11.715C5.00008 12.4514 5.59704 13.0484 6.33341 13.0484H11.5936C12.2201 13.0484 12.7622 12.6121 12.8961 12L13.8231 7.76226C13.914 7.34649 13.5974 6.95312 13.1718 6.95312H10.6667C9.93037 6.95312 9.33341 6.35617 9.33341 5.61979V4.69799C9.33341 4.00763 9.05917 3.34555 8.57101 2.85739C8.2775 2.56388 7.78793 2.61648 7.56346 2.96564L5.21184 6.62372C5.07359 6.83878 5.00008 7.08906 5.00008 7.34473Z" stroke="white" stroke-width="1.5" stroke-linecap="round"/>
</g>
</svg>

<svg width="16" height="16" fill="none" xmlns="http://www.w3.org/2000/svg"><g id="icons"><path id="Icon" d="M2.667 7.62v4.667M5 7.345v4.37c0 .736.597 1.333 1.333 1.333h5.26c.627 0 1.17-.436 1.303-1.048l.927-4.238a.667.667 0 00-.651-.809h-2.505A1.333 1.333 0 019.333 5.62v-.922c0-.69-.274-1.352-.762-1.84a.65.65 0 00-1.008.108L5.212 6.624a1.333 1.333 0 00-.212.72z" stroke="#fff" stroke-width="1.5" stroke-linecap="round"/></g></svg>
